teeny/outline/instagram.svg

<svg width="15" height="15" viewBox="0 0 15 15" fill="none" xmlns="http://www.w3.org/2000/svg">
<path d="M11 3.5H12M4.5 0.5H10.5C12.7091 0.5 14.5 2.29086 14.5 4.5V10.5C14.5 12.7091 12.7091 14.5 10.5 14.5H4.5C2.29086 14.5 0.5 12.7091 0.5 10.5V4.5C0.5 2.29086 2.29086 0.5 4.5 0.5ZM7.5 10.5C5.84315 10.5 4.5 9.15685 4.5 7.5C4.5 5.84315 5.84315 4.5 7.5 4.5C9.15685 4.5 10.5 5.84315 10.5 7.5C10.5 9.15685 9.15685 10.5 7.5 10.5Z" stroke="black"/>
</svg>

<svg viewBox="0 0 15 15" xmlns="http://www.w3.org/2000/svg"><path fill="none" stroke="#000" d="M11 3.5h1M4.5.5h6c2.2 0 4 1.79 4 4v6c0 2.2-1.8 4-4 4h-6c-2.21 0-4-1.8-4-4v-6c0-2.21 1.79-4 4-4Zm3 10c-1.66 0-3-1.35-3-3 0-1.66 1.34-3 3-3 1.65 0 3 1.34 3 3 0 1.65-1.35 3-3 3Z"/></svg>
